build/img/flow.svg

<svg width="64" height="64" viewBox="0 0 64 64" fill="none" xmlns="http://www.w3.org/2000/svg">
<rect x="1" y="9" width="62" height="25" rx="4" stroke="black" stroke-width="2"/>
<path d="M6 24H58" stroke="black" stroke-width="2"/>
<path d="M29 34.5V52" stroke="black" stroke-width="2"/>
<path d="M35 34.5V52" stroke="black" stroke-width="2"/>
<path d="M11 29H53" stroke="black" stroke-width="2"/>
<path d="M15 51V51.5C15 53.9853 17.0147 56 19.5 56V56C21.9853 56 24 53.9853 24 51.5V38" stroke="black" stroke-width="2"/>
<path d="M49 51V51.5C49 53.9853 46.9853 56 44.5 56V56C42.0147 56 40 53.9853 40 51.5V38" stroke="black" stroke-width="2"/>
</svg>

<svg width="64" height="64" viewBox="0 0 64 64" fill="none" xmlns="http://www.w3.org/2000/svg"><rect x="1" y="9" width="62" height="25" rx="4" stroke="#000" stroke-width="2"/><path d="M6 24h52M29 34.5V52m6-17.5V52M11 29h42M15 51v.5a4.5 4.5 0 004.5 4.5v0a4.5 4.5 0 004.5-4.5V38m25 13v.5a4.5 4.5 0 01-4.5 4.5v0a4.5 4.5 0 01-4.5-4.5V38" stroke="#000" stroke-width="2"/></svg>
